icons/night/haskell.svg

<svg xmlns="http://www.w3.org/2000/svg" fill="none" viewBox="0 0 16 16"><path
    fill="#3d59a1"
    d="M5 8 2 3h2l3 5-3 5H2l3-5Z"
  /><path fill="#9d7cd8" fill-rule="evenodd" d="m5 3 3 5-3 5h2l2-3.333L11 13h2l-3-5-3-5H5Z" clip-rule="evenodd" /><path
    fill="#bb9af7"
    d="m10 6 1 1.5h3V6h-4ZM11.5 8.5l1 1.5H14V8.5h-2.5Z"
  /></svg>

<svg width="16" height="16" viewBox="0 0 16 16" fill="none" xmlns="http://www.w3.org/2000/svg">
<path d="M5 8L2 3H4L7 8L4 13H2L5 8Z" fill="#3D59A1"/>
<path fill-rule="evenodd" clip-rule="evenodd" d="M5 3L8 8L5 13H7L9 9.667L11 13H13L7 3H5Z" fill="#9D7CD8"/>
<path d="M10 6L11 7.5H14V6H10ZM11.5 8.5L12.5 10H14V8.5H11.5Z" fill="#BB9AF7"/>
</svg>
